svg/blobs-icons/no-decorations/moon.svg

<svg xmlns="http://www.w3.org/2000/svg" xmlns:xlink="http://www.w3.org/1999/xlink" preserveAspectRatio="xMidYMid" width="197" height="217" viewBox="0 0 197 217"><defs><style>.cls-3{fill:#2476ff}.cls-4{fill:#020403;opacity:.35}</style></defs><g id="group-45svg"><path d="M164.031 31.683c42.307 42.307 42.307 111.144.0 153.452-42.306 42.308-111.142 42.308-153.448.0-3.197-3.196-6.347-6.858-9.636-11.21C-.109 172.527-.313 170.67.409 169.081 1.137 167.499 2.673 166.437 4.412 166.312 28.336 164.691 50.789 154.511 67.643 137.656c34.793-34.793 38.573-90.596 8.782-129.8C75.361 6.465 75.158 4.607 75.88 3.02 76.602 1.418 78.138.356 79.884.237c31.366-2.12 62.042 9.339 84.147 31.446z" id="path-1" class="cls-3" fill-rule="evenodd"/><path d="M164.031 31.683c-3.453-3.454-7.136-6.615-10.977-9.537C189.676 64.728 187.841 129.198 147.49 169.551c-29.493 29.494-74.319 46.037-111.623 34.409 14.532 8.596 34.101 11.521 40.447 12.341C107.639 219.464 140.084 209.083 164.031 185.135c42.307-42.308 42.307-111.145.0-153.452z" id="path-2" class="cls-4" fill-rule="evenodd"/></g></svg>

<svg xmlns="http://www.w3.org/2000/svg" xmlns:xlink="http://www.w3.org/1999/xlink" preserveAspectRatio="xMidYMid" width="197" height="217" viewBox="0 0 197 217">
  <defs>
    <style>

      .cls-3 {
        fill: #2476ff;
      }

      .cls-4 {
        fill: #020403;
        opacity: 0.35;
      }
    </style>
  </defs>
  <g id="group-45svg">
    <path d="M164.031,31.683 C206.338,73.990 206.338,142.827 164.031,185.135 C121.725,227.443 52.889,227.443 10.583,185.135 C7.386,181.939 4.236,178.277 0.947,173.925 C-0.109,172.527 -0.313,170.670 0.409,169.081 C1.137,167.499 2.673,166.437 4.412,166.312 C28.336,164.691 50.789,154.511 67.643,137.656 C102.436,102.863 106.216,47.060 76.425,7.856 C75.361,6.465 75.158,4.607 75.880,3.020 C76.602,1.418 78.138,0.356 79.884,0.237 C111.250,-1.883 141.926,9.576 164.031,31.683 Z" id="path-1" class="cls-3" fill-rule="evenodd"/>
    <path d="M164.031,31.683 C160.578,28.229 156.895,25.068 153.054,22.146 C189.676,64.728 187.841,129.198 147.490,169.551 C117.997,199.045 73.171,215.588 35.867,203.960 C50.399,212.556 69.968,215.481 76.314,216.301 C107.639,219.464 140.084,209.083 164.031,185.135 C206.338,142.827 206.338,73.990 164.031,31.683 Z" id="path-2" class="cls-4" fill-rule="evenodd"/>
  </g>
</svg>
